assets/images/svg-icons/facebook.svg

<?xml version="1.0" encoding="utf-8"?>
<!-- Generated by IcoMoon.io -->
<!DOCTYPE svg PUBLIC "-//W3C//DTD SVG 1.1//EN" "http://www.w3.org/Graphics/SVG/1.1/DTD/svg11.dtd">
<svg version="1.1" xmlns="http://www.w3.org/2000/svg" xmlns:xlink="http://www.w3.org/1999/xlink" width="16" height="28" viewBox="0 0 16 28">
<path fill="#444" d="M14.984 0.187v4.125h-2.453q-1.344 0-1.813 0.562t-0.469 1.687v2.953h4.578l-0.609 4.625h-3.969v11.859h-4.781v-11.859h-3.984v-4.625h3.984v-3.406q0-2.906 1.625-4.508t4.328-1.602q2.297 0 3.563 0.187z"></path>
</svg>

<svg xmlns="http://www.w3.org/2000/svg" width="16" height="28" viewBox="0 0 16 28"><path d="M14.984.187v4.125H12.53q-1.343 0-1.812.562t-.47 1.687v2.96h4.58l-.61 4.63h-3.97V26H5.47V14.14H1.484V9.514h3.984V6.108q0-2.906 1.625-4.508T11.42-.002q2.298 0 3.564.187z"/></svg>
